lib/logo_tmp/nrk-logo-nrk-p1-title-below.svg

<svg width="40" height="36" viewBox="0 0 40 36" fill="none" xmlns="http://www.w3.org/2000/svg">
<path d="M0 14.9252V0.926493H4.59339V14.9252H0ZM10.8428 3.15446L13.4844 14.9252H8.45737L5.30307 0.926493H8.12254C8.76907 0.918103 9.39641 1.14601 9.88691 1.56734C10.3782 1.971 10.7158 2.53137 10.8428 3.15446ZM14.1744 14.9252V0.926493H18.7678V14.9252H14.1744ZM22.2372 6.25C21.7422 6.25483 21.2552 6.12532 20.828 5.87535C20.4064 5.63169 20.0563 5.28151 19.8127 4.85992C19.5624 4.43261 19.4329 3.94544 19.4378 3.45026C19.4321 2.95809 19.5618 2.47383 19.8127 2.05039C20.0589 1.63338 20.4086 1.287 20.828 1.04483C21.2553 0.795141 21.7423 0.665655 22.2372 0.67017C22.7292 0.664871 23.2133 0.794472 23.6369 1.04483C24.0521 1.28912 24.3981 1.63521 24.6424 2.05039C24.893 2.47395 25.0226 2.95813 25.0172 3.45026C25.0218 3.9454 24.8923 4.43249 24.6424 4.85992C24.4007 5.27966 24.0542 5.62955 23.6369 5.87535C23.2133 6.12619 22.7289 6.25583 22.2366 6.25H22.2372ZM25.7269 14.9252V0.926493H30.3207V14.9252H25.7269ZM36.136 8.57649C36.1489 8.59008 36.2475 8.75108 36.4317 9.05954C36.6159 9.36799 36.8558 9.76235 37.1513 10.2426C37.447 10.7225 37.759 11.2319 38.0874 11.7706C38.4157 12.3093 38.7247 12.8186 39.0143 13.2986C39.3028 13.7786 39.6313 14.3208 40 14.9252H34.9531C34.6375 14.4126 34.3515 13.9493 34.0952 13.5352C33.8389 13.1212 33.5665 12.6742 33.2778 12.1945C32.9884 11.7151 32.7024 11.2485 32.4196 10.7946C32.1368 10.3407 31.8938 9.9431 31.6905 9.60179C31.4863 9.26026 31.3449 9.0302 31.2663 8.91168C31.0713 8.61757 30.9559 8.2779 30.9315 7.92586C30.951 7.58798 31.0597 7.26136 31.2466 6.97918C31.3254 6.84774 31.47 6.61439 31.6803 6.27921C31.8906 5.94403 32.137 5.54645 32.4196 5.0864C32.7021 4.62635 32.9882 4.15643 33.2778 3.67666C33.5674 3.19689 33.8398 2.74666 34.0952 2.32605C34.3519 1.90587 34.6379 1.43924 34.9531 0.926172H40L36.0962 7.29463C35.9754 7.48371 35.9073 7.70162 35.8991 7.92586C35.9121 8.16126 35.9942 8.38759 36.1353 8.57649H36.136Z" fill="white"/>
<path d="M9.50279 22.8189C9.26049 22.445 8.94938 22.1204 8.58601 21.8624C8.18098 21.5789 7.73116 21.3656 7.25529 21.2315C6.6776 21.0721 6.08007 20.9958 5.48085 21.0051H0V35.003H2.07013V29.9756H5.63857C6.44399 29.9878 7.2388 29.7908 7.94528 29.4039C8.62213 29.0286 9.18431 28.4765 9.57178 27.8066C9.98705 27.0672 10.1948 26.2293 10.1731 25.3816C10.1749 24.9235 10.1219 24.4668 10.0154 24.0212C9.91303 23.5946 9.73973 23.1882 9.50279 22.8189ZM7.66931 27.0676C7.40438 27.4834 7.01431 27.8044 6.55535 27.9844C5.99842 28.1951 5.40579 28.2956 4.81052 28.2801H2.07013V22.7204H5.08656C5.6627 22.6986 6.23615 22.8098 6.7624 23.0453C7.18103 23.2476 7.52326 23.5795 7.7383 23.9917C7.96612 24.454 8.07777 24.965 8.0636 25.4802C8.08636 26.0361 7.94955 26.5869 7.66931 27.0676Z" fill="white"/>
<path d="M15.2794 21.0051C14.9638 21.1628 14.6647 21.3173 14.3821 21.4684C14.0995 21.6196 13.8236 21.7609 13.5543 21.8923C13.2845 22.0237 13.0116 22.1552 12.7358 22.2866C12.46 22.4181 12.1774 22.5363 11.8881 22.6415C11.5989 22.7471 11.2902 22.8521 10.9618 22.9566L11.3952 24.6324C11.7895 24.5141 12.1476 24.3958 12.4697 24.2775C12.7851 24.1622 13.0944 24.0306 13.3963 23.8833C13.6923 23.7387 13.988 23.5809 14.2835 23.4101L14.2937 23.4042V35.0034H16.3438V21.0054L15.2794 21.0051Z" fill="white"/>
</svg>

<svg xmlns="http://www.w3.org/2000/svg" viewBox="0 0 40 36"><path fill="#fff" d="M0 14.925V.926h4.593v14H0Zm10.843-11.77 2.641 11.77H8.457L5.303.926h2.82a2.655 2.655 0 0 1 1.764.641c.491.404.829.964.956 1.587Zm3.331 11.77V.926h4.594v14h-4.594Zm8.063-8.675a2.737 2.737 0 0 1-1.409-.375 2.778 2.778 0 0 1-1.015-1.015 2.735 2.735 0 0 1-.375-1.41 2.685 2.685 0 0 1 .375-1.4 2.812 2.812 0 0 1 3.824-1.005c.415.244.761.59 1.005 1.005.251.424.38.908.375 1.4.005.495-.125.982-.375 1.41a2.8 2.8 0 0 1-1.005 1.015c-.424.251-.908.38-1.4.375Zm3.49 8.675V.926h4.594v14h-4.594Zm10.409-6.349c.013.014.111.175.296.484.184.308.424.702.72 1.183a377.481 377.481 0 0 1 1.862 3.056c.289.48.617 1.022.986 1.626h-5.047l-.858-1.39c-.256-.414-.529-.86-.817-1.34-.29-.48-.576-.947-.858-1.4a71.104 71.104 0 0 1-.73-1.193 21.112 21.112 0 0 0-.424-.69 2.04 2.04 0 0 1-.334-.986c.019-.338.128-.665.315-.947.078-.131.223-.365.433-.7a216.7 216.7 0 0 0 1.598-2.603l.817-1.35.858-1.4H40l-3.904 6.369c-.12.189-.189.407-.197.63.013.236.095.463.236.651h.001ZM9.503 22.819a3.523 3.523 0 0 0-.917-.957 4.403 4.403 0 0 0-1.33-.63 6.304 6.304 0 0 0-1.775-.227H0v13.998h2.07v-5.027H5.64c.805.012 1.6-.185 2.306-.572a4.272 4.272 0 0 0 1.627-1.597c.415-.74.623-1.578.601-2.425a5.755 5.755 0 0 0-.158-1.36 3.92 3.92 0 0 0-.512-1.203Zm-1.834 4.249a2.33 2.33 0 0 1-1.114.916c-.557.211-1.15.312-1.744.296H2.07v-5.56h3.016c.576-.021 1.15.09 1.675.325.419.203.761.534.976.947.228.462.34.973.326 1.488a2.915 2.915 0 0 1-.395 1.588ZM15.28 21.005a36.63 36.63 0 0 0-.898.463c-.282.152-.558.293-.828.424-.27.132-.542.263-.818.395-.276.131-.559.25-.848.355-.29.105-.598.21-.926.315l.433 1.675c.395-.118.753-.236 1.075-.355.315-.115.624-.246.926-.394.296-.144.592-.302.887-.473l.01-.006v11.6h2.05V21.004H15.28Z"/></svg>
